packages/calcite-ui-icons/icons/mosaic-method-sum-24.svg

<?xml version="1.0" encoding="UTF-8"?><svg id="icons" xmlns="http://www.w3.org/2000/svg" viewBox="0 0 24 24"><defs><style>.cls-1{fill:none;}.cls-2{opacity:.5;}.cls-3{opacity:.25;}</style></defs><path class="cls-3" d="M2,5h2v2h-2v-2ZM5,10h2v-2h-2v2ZM7,3h2V1h-2v2ZM10,4v2h2v-2h-2Z"/><path class="cls-2" d="M8,8h2v2h-2v-2ZM10,3h2V1h-2v2ZM13,4v2h2v-2h-2Z"/><path d="M10,10h-2v-2h-1v2h-2v-2h1c-.55273,0-1-.44727-1-1v-3H1v7h10v-3h-1v2ZM4,10h-2v-2h2v2ZM4,7h-2v-2h2v2ZM16,0H6v7h10V0ZM9,6h-2v-2h2v2ZM9,3h-2V1h2v2ZM12,6h-2v-2h2v2ZM12,3h-2V1h2v2ZM15,6h-2v-2h2v2ZM15,3h-2V1h2v2ZM23.98926,21.45312l-1.21875,2.54688h-10.27246l5.20117-7.47656-5.29395-6.52344h10.5498v3h-.955v-2h-7.4952l4.44434,5.47656-4.53711,6.52344h7.72754l.94727-1.97852.90234.43164Z"/><rect class="cls-1" width="24" height="24"/></svg>

<svg xmlns="http://www.w3.org/2000/svg" viewBox="0 0 24 24"><path d="M2 5h2v2H2V5zm3 5h2V8H5v2zm2-7h2V1H7v2zm3 1v2h2V4h-2z" opacity=".25"/><path d="M8 8h2v2H8V8zm2-5h2V1h-2v2zm3 1v2h2V4h-2z" opacity=".5"/><path d="M10 10H8V8H7v2H5V8h1a1 1 0 0 1-1-1V4H1v7h10V8h-1v2zm-6 0H2V8h2v2zm0-3H2V5h2v2zm12-7H6v7h10V0zM9 6H7V4h2v2zm0-3H7V1h2v2zm3 3h-2V4h2v2zm0-3h-2V1h2v2zm3 3h-2V4h2v2zm0-3h-2V1h2v2zm8.99 18.453L22.77 24H12.499l5.201-7.477L12.405 10h10.55v3H22v-2h-7.495l4.444 5.477L14.412 23h7.728l.947-1.979.902.432z"/><path fill="none" d="M0 0h24v24H0z"/></svg>
